Yaru++/mimetypes/48/application-x-virtualbox-vbox-extpack.svg

<svg height="48" viewBox="0 0 12.699375 12.699376" width="48" xmlns="http://www.w3.org/2000/svg" xmlns:xlink="http://www.w3.org/1999/xlink"><linearGradient id="a" gradientUnits="userSpaceOnUse" x1="6.35044508" x2="6.35044508" y1=".13228552" y2="12.30252024"><stop offset="0" stop-color="#fff"/><stop offset=".125" stop-color="#fff" stop-opacity=".098039"/><stop offset=".92500001" stop-color="#fff" stop-opacity=".098039"/><stop offset="1" stop-opacity=".498039"/></linearGradient><linearGradient id="b" gradientTransform="matrix(0 -.02997086 -.02997 0 15.739288 13.625372)" gradientUnits="userSpaceOnUse" x1="512" x2="-.000001" y1="397.99393" y2="125.99394"><stop offset="0" stop-color="#497f00"/><stop offset="1" stop-color="#75cb00"/></linearGradient><path d="m4.1621983.39685676c-.5881821 0-1.0513178.0135407-1.4323996.0775109-.3810844.06396888-.6929229.18395549-.9213476.41184075-.2284221.22788549-.3489842.53958349-.4123567.92082879-.0633725.3812456-.0757438.8453924-.07286 1.4349839v3.239953 3.2415032c-.00286.5886857.00955 1.0525967.07286 1.4334327.063373.381246.1839346.692944.4123567.920829.2284247.227885.5402632.347873.9213476.411841.3810845.06397.8442175.07751 1.4323996.07751h4.3757445c.5881822 0 1.0510744-.01352 1.4313681-.07751.3802931-.064.6911791-.18439.9187601-.412357.227583-.227967.347433-.539443.411325-.920313.06389-.380867.07751-.844073.07751-1.4334327v-3.2415032-3.2415031c0-.5893606-.01362-1.0525645-.07751-1.4334338-.063892-.3808691-.183742-.6923443-.411325-.92031208-.227581-.22796755-.538467-.3483608-.9187601-.41235745-.3802937-.06399692-.8431859-.07751091-1.4313681-.07751091z" opacity=".1"/><path d="m4.1621983.13228644c-.5880975 0-1.0515929.0141042-1.4323996.0780276-.3812749.06400116-.692825.18385575-.9213476.41184076-.2285623.22802654-.3489577.5389009-.4123567.9203121-.0633143.3808966-.0757438.8449217-.07286 1.4344672v3.2404697 3.2415032c-.00286.588935.00958 1.052801.07286 1.433433.063399.381412.1837917.692285.4123567.920313.2285252.227983.54007.347839.9213476.411841.3808067.06392.8443021.07803 1.4323996.07803h4.3757445c.5880922 0 1.0508336-.01408 1.4308491-.07803.3804421-.06402.6914781-.183652.9192791-.411841.227723-.228107.347404-.539258.411325-.920313.06386-.38069.07751-.844226.07751-1.433433v-3.2415032-3.2415031c0-.5892071-.01365-1.0527452-.07751-1.4334338-.063921-.3810543-.183602-.69220354-.411325-.9203121-.227801-.22818688-.538837-.34781897-.9192791-.41184075-.3800155-.06395009-.8427569-.07802761-1.4308491-.07802761z" fill="url(#b)"/><path d="m4.162574.2645716c-.5859201 0-1.0443173.0144588-1.4106969.0759605-.3663796.06150098-.6470094.17311844-.8495195.37515254-.20251.2020341-.3142566.48213756-.3751527.84848516-.0608962.3663479-.0741829.8250345-.0713097 1.4122476v3.2409864 3.2415032c-.00286.586905.010424 1.045517.07131 1.41173.060896.366348.1726401.646451.3751528.848485s.4831372.313651.8495195.375153c.3663796.0615.8247768.07596 1.4106969.07596h4.3757445c.5859174 0 1.0436082-.01445 1.4091464-.07596.3655377-.06151.6457207-.173077.8474527-.375153.201732-.202073.313212-.482325.374634-.848485.06142-.36616.07545-.824629.07545-1.41173v-3.2415032-3.2415031c0-.5871009-.01402-1.0455706-.07545-1.4117309-.061422-.3661603-.172902-.64641085-.374634-.84848516-.201732-.20207432-.481915-.31363859-.8474531-.37515252-.3655382-.06151366-.823229-.07596052-1.4091464-.07596052z" fill="none" opacity=".3" stroke="url(#a)" stroke-width=".26457"/><path d="m1.3232344 4.3654116h2.6146956l.8684256 3.0877367 1.1482564-4.0526538.8238826 2.2216261.8261235-2.2216261.9732536 2.8169093h2.7990353" fill="none" stroke="#fff" stroke-width=".529141"/><g fill="#fff"><path d="m1.5878047 6.2174038v3.2415032c-.011456 2.339338.2397774 2.579044 2.5743936 2.579044h4.3757445c2.3346162 0 2.5743932-.23968 2.5743932-2.579044v-3.2415032z" opacity=".08"/><path d="m6.3500706.39685676v11.64109424h2.1878722c2.3346162 0 2.5743932-.23968 2.5743932-2.579044v-3.2415032-3.2415031c0-2.33936518-.239777-2.57904394-2.5743932-2.57904394z" opacity=".08"/><g enable-background="new" stroke-width=".26457"><path d="m4.6176514 10.090711q0-.1703833.049386-.2963188.049386-.1284048.1308742-.2123617.081488-.083957.1876685-.1259355.1061809-.041978.2173004-.041978.2592789 0 .397561.1629753.1382821.160506.1382821.4913952 0 .01482 0 .03951 0 .02222-.00247.04198h-.879079q.014816.200015.1160582.303726.1012422.103712.3160733.103712.1209968 0 .2024845-.01975.083957-.02222.1259355-.04198l.032101.192607q-.041978.02222-.1481594.04692-.1037116.02469-.237055.02469-.167914 0-.2913801-.04939-.1209968-.05186-.2000152-.140751-.079018-.0889-.1185275-.209893-.03704-.123466-.03704-.269156zm.8815483-.1259355q.0024693-.1555673-.0790184-.2543402-.0790183-.1012423-.2197697-.1012423-.079018 0-.1407514.032101-.059264.029632-.1012423.079018-.041978.049386-.066672.1135889-.022224.064202-.029632.1308741z"/><path d="m6.8375681 10.730266q-.027163-.05433-.066672-.120997-.039509-.06667-.086426-.135813-.046917-.07161-.096304-.140751-.049386-.06914-.096304-.130874-.046917.06173-.096304.133343-.049387.06914-.096304.140751-.044448.06914-.083957.135813-.039509.06667-.066672.118528h-.2370531q.0864263-.167914.2049538-.340767.1209968-.175322.2395243-.333359l-.4247235-.6099223h.2592789l.306196.4494168.3086654-.4494168h.2444629l-.4148462.5951073q.1185275.160506.2419936.340766.1259355.177791.2123618.348175z"/><path d="m7.5462628 9.4462177h.4864566v.1926072h-.4864566v.5926371q0 .0963.014816.160506.014816.06173.044448.09877.029632.03457.07408.04939.044448.01482.1037116.01482.1037116 0 .1654446-.02222.064202-.02469.088896-.03457l.044448.190138q-.034571.01728-.1209969.04198-.086426.02716-.1975458.02716-.1308741 0-.2173004-.0321-.083957-.03457-.1358128-.101242-.051856-.06667-.07408-.162976-.019754-.09877-.019754-.227177v-1.1457751l.229647-.039509z"/></g></g></svg>

<?xml version="1.0" encoding="UTF-8" standalone="no"?>
<svg
   xmlns:dc="http://purl.org/dc/elements/1.1/"
   xmlns:cc="http://creativecommons.org/ns#"
   xmlns:rdf="http://www.w3.org/1999/02/22-rdf-syntax-ns#"
   xmlns:svg="http://www.w3.org/2000/svg"
   xmlns="http://www.w3.org/2000/svg"
   xmlns:xlink="http://www.w3.org/1999/xlink"
   xmlns:sodipodi="http://sodipodi.sourceforge.net/DTD/sodipodi-0.dtd"
   xmlns:inkscape="http://www.inkscape.org/namespaces/inkscape"
   height="48"
   viewBox="0 0 12.699375 12.699376"
   width="48"
   version="1.1"
   id="svg33"
   sodipodi:docname="application-x-virtualbox-vbox-extpack.svg"
   inkscape:version="0.92.5 (2060ec1f9f, 2020-04-08)">
  <metadata
     id="metadata39">
    <rdf:RDF>
      <cc:Work
         rdf:about="">
        <dc:format>image/svg+xml</dc:format>
        <dc:type
           rdf:resource="http://purl.org/dc/dcmitype/StillImage" />
        <dc:title></dc:title>
      </cc:Work>
    </rdf:RDF>
  </metadata>
  <defs
     id="defs37">
    <linearGradient
       gradientTransform="matrix(0.26457032,0,0,0.26457032,-84.661745,-16.006504)"
       inkscape:collect="always"
       xlink:href="#linearGradient927-3-6"
       id="linearGradient925"
       x1="344"
       y1="61"
       x2="344"
       y2="107"
       gradientUnits="userSpaceOnUse" />
    <linearGradient
       inkscape:collect="always"
       id="linearGradient927-3-6">
      <stop
         style="stop-color:#ffffff;stop-opacity:1;"
         offset="0"
         id="stop923-3" />
      <stop
         id="stop933-5"
         offset="0.125"
         style="stop-color:#ffffff;stop-opacity:0.09803922" />
      <stop
         id="stop931-6"
         offset="0.92500001"
         style="stop-color:#ffffff;stop-opacity:0.09803922" />
      <stop
         style="stop-color:#000000;stop-opacity:0.49803922"
         offset="1"
         id="stop925-2" />
    </linearGradient>
    <linearGradient
       inkscape:collect="always"
       xlink:href="#linearGradient926"
       id="linearGradient951"
       gradientUnits="userSpaceOnUse"
       gradientTransform="matrix(0,-0.02997086,-0.02997,0,15.739288,13.625372)"
       x1="512"
       y1="397.99393"
       x2="-1.0000001e-06"
       y2="125.99394" />
    <linearGradient
       id="linearGradient926"
       inkscape:collect="always">
      <stop
         id="stop922"
         offset="0"
         style="stop-color:#497f00;stop-opacity:1" />
      <stop
         id="stop924"
         offset="1"
         style="stop-color:#75cb00;stop-opacity:1" />
    </linearGradient>
  </defs>
  <sodipodi:namedview
     pagecolor="#ffffff"
     bordercolor="#666666"
     borderopacity="1"
     objecttolerance="10"
     gridtolerance="10"
     guidetolerance="10"
     inkscape:pageopacity="0"
     inkscape:pageshadow="2"
     inkscape:window-width="939"
     inkscape:window-height="670"
     id="namedview35"
     showgrid="false"
     inkscape:zoom="4.9166667"
     inkscape:cx="24"
     inkscape:cy="23.617017"
     inkscape:window-x="0"
     inkscape:window-y="27"
     inkscape:window-maximized="0"
     inkscape:current-layer="svg33" />
  <linearGradient
     id="a"
     gradientUnits="userSpaceOnUse"
     x1="344"
     x2="344"
     y1="62"
     y2="106">
    <stop
       offset="0"
       stop-color="#fff"
       id="stop2" />
    <stop
       offset=".125"
       stop-color="#fff"
       stop-opacity=".098039"
       id="stop4" />
    <stop
       offset=".92500001"
       stop-color="#fff"
       stop-opacity=".098039"
       id="stop6" />
    <stop
       offset="1"
       stop-color="#fff"
       stop-opacity=".498039"
       id="stop8" />
  </linearGradient>
  <clipPath
     id="b">
    <path
       d="m335.73108 62c-8.82418 0-9.77365.90635-9.7304 9.74838v12.25162 12.25162c-.0433 8.84203.90622 9.74838 9.7304 9.74838h16.53919c8.82418 0 9.7304-.90625 9.7304-9.74838v-12.25162-12.25162c0-8.84213-.90622-9.74838-9.7304-9.74838z"
       id="path11" />
  </clipPath>
  <linearGradient
     id="c"
     gradientTransform="matrix(0 -.02997086 .02997 0 -3.039509 13.625372)"
     gradientUnits="userSpaceOnUse"
     x1="459.03448"
     x2="35.310345"
     y1="419.23337"
     y2="207.36522">
    <stop
       offset="0"
       stop-color="#f2f2f2"
       id="stop14" />
    <stop
       offset="1"
       stop-color="#f9f9f9"
       id="stop16" />
  </linearGradient>
  <flowRoot
     xml:space="preserve"
     id="flowRoot958"
     style="fill:black;fill-opacity:1;stroke:none;font-family:sans-serif;font-style:normal;font-weight:normal;font-size:40px;line-height:1.25;letter-spacing:0px;word-spacing:0px"><flowRegion
       id="flowRegion960"><rect
         id="rect962"
         width="61.423729"
         height="69.559319"
         x="-5.2881355"
         y="-15.050847" /></flowRegion><flowPara
       id="flowPara964"></flowPara></flowRoot>  <flowRoot
     xml:space="preserve"
     id="flowRoot1371"
     style="fill:black;fill-opacity:1;stroke:none;font-family:sans-serif;font-style:normal;font-weight:normal;font-size:40px;line-height:1.25;letter-spacing:0px;word-spacing:0px"><flowRegion
       id="flowRegion1373"><rect
         id="rect1375"
         width="77.694916"
         height="83.796608"
         x="-11.79661"
         y="-16.677965" /></flowRegion><flowPara
       id="flowPara1377"></flowPara></flowRoot>  <path
     style="color:#000000;font-style:normal;font-variant:normal;font-weight:normal;font-stretch:normal;font-size:medium;line-height:normal;font-family:sans-serif;font-variant-ligatures:normal;font-variant-position:normal;font-variant-caps:normal;font-variant-numeric:normal;font-variant-alternates:normal;font-feature-settings:normal;text-indent:0;text-align:start;text-decoration:none;text-decoration-line:none;text-decoration-style:solid;text-decoration-color:#000000;letter-spacing:normal;word-spacing:normal;text-transform:none;writing-mode:lr-tb;direction:ltr;text-orientation:mixed;dominant-baseline:auto;baseline-shift:baseline;text-anchor:start;white-space:normal;shape-padding:0;clip-rule:nonzero;display:inline;overflow:visible;visibility:visible;opacity:0.1;isolation:auto;mix-blend-mode:normal;color-interpolation:sRGB;color-interpolation-filters:linearRGB;solid-color:#000000;solid-opacity:1;vector-effect:none;fill:#000000;fill-opacity:1;fill-rule:nonzero;stroke:none;stroke-width:0.52914065;stroke-linecap:butt;stroke-linejoin:miter;stroke-miterlimit:4;stroke-dasharray:none;stroke-dashoffset:0;stroke-opacity:1;marker:none;color-rendering:auto;image-rendering:auto;shape-rendering:auto;text-rendering:auto;enable-background:accumulate"
     d="m 4.1621983,0.39685676 c -0.5881821,0 -1.0513178,0.0135407 -1.4323996,0.0775109 C 2.3487143,0.53833654 2.0368758,0.65832315 1.8084511,0.88620841 1.580029,1.1140939 1.4594669,1.4257919 1.3960944,1.8070372 1.3327219,2.1882828 1.3203506,2.6524296 1.3232344,3.2420211 v 3.239953 3.2415032 c -0.00286,0.5886857 0.00955,1.0525967 0.07286,1.4334327 0.063373,0.381246 0.1839346,0.692944 0.4123567,0.920829 0.2284247,0.227885 0.5402632,0.347873 0.9213476,0.411841 0.3810845,0.06397 0.8442175,0.07751 1.4323996,0.07751 h 4.3757445 c 0.5881822,0 1.0510744,-0.01352 1.4313681,-0.07751 0.3802931,-0.064 0.6911791,-0.18439 0.9187601,-0.412357 0.227583,-0.227967 0.347433,-0.539443 0.411325,-0.920313 0.06389,-0.380867 0.07751,-0.844073 0.07751,-1.4334327 V 6.4819741 3.240471 c 0,-0.5893606 -0.01362,-1.0525645 -0.07751,-1.4334338 C 11.235504,1.4261681 11.115654,1.1146929 10.888071,0.88672512 10.66049,0.65875757 10.349604,0.53836432 9.9693109,0.47436767 9.5890172,0.41037075 9.126125,0.39685676 8.5379428,0.39685676 Z"
     id="path1020"
     inkscape:connector-curvature="0"
     sodipodi:nodetypes="sccsccccccsscccscsccsss" />
  <path
     inkscape:connector-curvature="0"
     style="color:#000000;display:inline;overflow:visible;visibility:visible;fill:url(#linearGradient951);fill-opacity:1;fill-rule:nonzero;stroke:none;stroke-width:0.26457033;marker:none;enable-background:accumulate"
     d="m 4.1621983,0.13228644 c -0.5880975,0 -1.0515929,0.0141042 -1.4323996,0.0780276 C 2.3485238,0.2743152 2.0369737,0.39416979 1.8084511,0.6221548 1.5798888,0.85018134 1.4594934,1.1610557 1.3960944,1.5424669 1.3327801,1.9233635 1.3203506,2.3873886 1.3232344,2.9769341 V 6.2174038 9.458907 c -0.00286,0.588935 0.00958,1.052801 0.07286,1.433433 0.063399,0.381412 0.1837917,0.692285 0.4123567,0.920313 0.2285252,0.227983 0.54007,0.347839 0.9213476,0.411841 0.3808067,0.06392 0.8443021,0.07803 1.4323996,0.07803 h 4.3757445 c 0.5880922,0 1.0508336,-0.01408 1.4308491,-0.07803 0.3804421,-0.06402 0.6914781,-0.183652 0.9192791,-0.411841 0.227723,-0.228107 0.347404,-0.539258 0.411325,-0.920313 0.06386,-0.38069 0.07751,-0.844226 0.07751,-1.433433 V 6.2174038 2.9759007 c 0,-0.5892071 -0.01365,-1.0527452 -0.07751,-1.4334338 C 11.235475,1.1614126 11.115794,0.85026336 10.888071,0.6221548 10.66027,0.39396792 10.349234,0.27433583 9.9687919,0.21031405 9.5887764,0.14636396 9.126035,0.13228644 8.5379428,0.13228644 Z"
     id="path949" />
  <path
     id="path901"
     d="m 4.162574,0.2645716 c -0.5859201,0 -1.0443173,0.0144588 -1.4106969,0.0759605 C 2.3854975,0.40203308 2.1048677,0.51365054 1.9023576,0.71568464 1.6998476,0.91771874 1.588101,1.1978222 1.5272049,1.5641698 1.4663087,1.9305177 1.453022,2.3892043 1.4558952,2.9764174 V 6.2174038 9.458907 c -0.00286,0.586905 0.010424,1.045517 0.07131,1.41173 0.060896,0.366348 0.1726401,0.646451 0.3751528,0.848485 0.2025127,0.202034 0.4831372,0.313651 0.8495195,0.375153 0.3663796,0.0615 0.8247768,0.07596 1.4106969,0.07596 h 4.3757445 c 0.5859174,0 1.0436082,-0.01445 1.4091464,-0.07596 0.3655377,-0.06151 0.6457207,-0.173077 0.8474527,-0.375153 0.201732,-0.202073 0.313212,-0.482325 0.374634,-0.848485 0.06142,-0.36616 0.07545,-0.824629 0.07545,-1.41173 V 6.2174038 2.9759007 c 0,-0.5871009 -0.01402,-1.0455706 -0.07545,-1.4117309 C 11.10813,1.1980095 10.99665,0.91775895 10.794918,0.71568464 10.593186,0.51361032 10.313003,0.40204605 9.9474649,0.34053212 9.5819267,0.27901846 9.1242359,0.2645716 8.5383185,0.2645716 Z"
     style="color:#000000;display:inline;overflow:visible;visibility:visible;opacity:0.3;fill:none;fill-opacity:1;fill-rule:nonzero;stroke:url(#linearGradient925);stroke-width:0.26457033;stroke-opacity:1;marker:none;enable-background:accumulate"
     inkscape:connector-curvature="0" />
  <path
     sodipodi:nodetypes="cccccccc"
     inkscape:connector-curvature="0"
     id="path981"
     d="M 1.3232344,4.3654116 H 3.93793 L 4.8063556,7.4531483 5.954612,3.4004945 6.7784946,5.6221206 7.6046181,3.4004945 8.5778717,6.2174038 h 2.7990353"
     style="display:inline;fill:none;stroke:#ffffff;stroke-width:0.52914065;stroke-linecap:butt;stroke-linejoin:miter;stroke-miterlimit:4;stroke-dasharray:none;stroke-opacity:1;enable-background:new" />
  <path
     style="color:#000000;display:inline;overflow:visible;visibility:visible;opacity:0.07999998;fill:#ffffff;fill-opacity:1;fill-rule:nonzero;stroke:none;stroke-width:0.26457033;marker:none;enable-background:accumulate"
     d="M 1.5878047,6.2174038 V 9.458907 c -0.011456,2.339338 0.2397774,2.579044 2.5743936,2.579044 h 4.3757445 c 2.3346162,0 2.5743932,-0.23968 2.5743932,-2.579044 V 6.2174038 Z"
     id="path1006"
     inkscape:connector-curvature="0" />
  <path
     style="color:#000000;display:inline;overflow:visible;visibility:visible;opacity:0.07999998;fill:#ffffff;fill-opacity:1;fill-rule:nonzero;stroke:none;stroke-width:0.26457033;marker:none;enable-background:accumulate"
     d="M 6.3500706,0.39685676 V 12.037951 h 2.1878722 c 2.3346162,0 2.5743932,-0.23968 2.5743932,-2.579044 V 6.2174038 2.9759007 c 0,-2.33936518 -0.239777,-2.57904394 -2.5743932,-2.57904394 z"
     id="path1013"
     inkscape:connector-curvature="0" />
  <g
     aria-label="ext"
     style="font-style:normal;font-variant:normal;font-weight:normal;font-stretch:normal;font-size:2.46932292px;line-height:1.25;font-family:ubuntu;-inkscape-font-specification:'ubuntu, Normal';font-variant-ligatures:normal;font-variant-caps:normal;font-variant-numeric:normal;font-feature-settings:normal;text-align:start;letter-spacing:0px;word-spacing:0px;writing-mode:lr-tb;text-anchor:start;display:inline;fill:#ffffff;fill-opacity:1;stroke:none;stroke-width:0.26457033;enable-background:new"
     id="text930">
    <path
       d="m 4.6176514,10.090711 q 0,-0.1703833 0.049386,-0.2963188 0.049386,-0.1284048 0.1308742,-0.2123617 0.081488,-0.083957 0.1876685,-0.1259355 0.1061809,-0.041978 0.2173004,-0.041978 0.2592789,0 0.397561,0.1629753 0.1382821,0.160506 0.1382821,0.4913952 0,0.01482 0,0.03951 0,0.02222 -0.00247,0.04198 h -0.879079 q 0.014816,0.200015 0.1160582,0.303726 0.1012422,0.103712 0.3160733,0.103712 0.1209968,0 0.2024845,-0.01975 0.083957,-0.02222 0.1259355,-0.04198 l 0.032101,0.192607 q -0.041978,0.02222 -0.1481594,0.04692 -0.1037116,0.02469 -0.237055,0.02469 -0.167914,0 -0.2913801,-0.04939 -0.1209968,-0.05186 -0.2000152,-0.140751 -0.079018,-0.0889 -0.1185275,-0.209893 -0.03704,-0.123466 -0.03704,-0.269156 z M 5.4991997,9.9647755 Q 5.501669,9.8092082 5.4201813,9.7104353 5.341163,9.609193 5.2004116,9.609193 q -0.079018,0 -0.1407514,0.032101 -0.059264,0.029632 -0.1012423,0.079018 -0.041978,0.049386 -0.066672,0.1135889 -0.022224,0.064202 -0.029632,0.1308741 z"
       style="stroke-width:0.26457033"
       id="path1419" />
    <path
       d="m 6.8375681,10.730266 q -0.027163,-0.05433 -0.066672,-0.120997 -0.039509,-0.06667 -0.086426,-0.135813 -0.046917,-0.07161 -0.096304,-0.140751 -0.049386,-0.06914 -0.096304,-0.130874 -0.046917,0.06173 -0.096304,0.133343 -0.049387,0.06914 -0.096304,0.140751 -0.044448,0.06914 -0.083957,0.135813 -0.039509,0.06667 -0.066672,0.118528 H 5.911572 Q 5.9979983,10.562352 6.1165258,10.389499 6.2375226,10.214177 6.3560501,10.05614 L 5.9313266,9.4462177 H 6.1906055 L 6.4968015,9.8956345 6.8054669,9.4462177 H 7.0499298 L 6.6350836,10.041325 q 0.1185275,0.160506 0.2419936,0.340766 0.1259355,0.177791 0.2123618,0.348175 z"
       style="stroke-width:0.26457033"
       id="path1421" />
    <path
       d="M 7.5462628,9.4462177 H 8.0327194 V 9.6388249 H 7.5462628 v 0.5926371 q 0,0.0963 0.014816,0.160506 0.014816,0.06173 0.044448,0.09877 0.029632,0.03457 0.07408,0.04939 0.044448,0.01482 0.1037116,0.01482 0.1037116,0 0.1654446,-0.02222 0.064202,-0.02469 0.088896,-0.03457 l 0.044448,0.190138 q -0.034571,0.01728 -0.1209969,0.04198 -0.086426,0.02716 -0.1975458,0.02716 -0.1308741,0 -0.2173004,-0.0321 -0.083957,-0.03457 -0.1358128,-0.101242 -0.051856,-0.06667 -0.07408,-0.162976 -0.019754,-0.09877 -0.019754,-0.227177 V 9.0881659 l 0.229647,-0.039509 z"
       style="stroke-width:0.26457033"
       id="path1423" />
  </g>
</svg>
